src/icons/PowerIcon.svg

<svg title="Щит" width="180" height="160" viewBox="0 0 180 160" fill="none" xmlns="http://www.w3.org/2000/svg">
<g clip-path="url(#clip0_10079_21731859)">
<rect width="180" height="160" fill="white"/>
<g filter="url(#filter0_f_10079_21731859)">
<path d="M86.3867 152.83C111.099 152.83 131.133 151.541 131.133 149.951C131.133 148.36 111.099 147.071 86.3867 147.071C61.6741 147.071 41.6406 148.36 41.6406 149.951C41.6406 151.541 61.6741 152.83 86.3867 152.83Z" fill="url(#paint0_radial_10079_21731859)"/>
</g>
<path d="M91.5707 13.1694H79.9568V17.0601L39.25 30.7645L40.7598 59.7413C42.2696 88.66 56.8451 114.966 79.9568 131.573V138.716H91.5707C121.36 123.269 140.698 93.2475 142.382 59.7413L143.891 30.7645L91.5707 13.1694Z" fill="url(#paint1_linear_10079_21731859)"/>
<path d="M71.0703 20.0799H112.126L106.551 18.2217H76.5869L71.0703 20.0799Z" fill="#0062EA"/>
<path d="M68.2266 121.585C70.4913 123.85 72.8721 125.999 75.4272 128.089H107.772C110.269 126.057 112.65 123.85 114.973 121.585H68.2266Z" fill="#0062EA"/>
<path d="M71.7734 30.939V37.4428H143.548L143.896 30.939H71.7734Z" fill="#0062EA"/>
<path d="M99.9872 133.78C100.916 133.199 101.787 132.561 102.716 131.922H79.9531V133.78H99.9872Z" fill="#42AB44"/>
<path d="M81.2344 40.6943V42.5526H143.311L143.369 40.6943H81.2344Z" fill="#42AB44"/>
<mask id="mask0_10079_21731859" style="mask-type:alpha" maskUnits="userSpaceOnUse" x="27" y="13" width="106" height="126">
<path d="M79.9536 138.716C109.743 123.269 129.08 93.2475 130.764 59.7413L132.274 30.7645L79.9536 13.1694L27.6328 30.7645L29.1426 59.7413C30.8266 93.2475 50.2219 123.269 79.9536 138.716Z" fill="#42AB44"/>
</mask>
<g mask="url(#mask0_10079_21731859)">
<path d="M79.9536 138.716C109.743 123.269 129.08 93.2475 130.764 59.7413L132.274 30.7645L79.9536 13.1694L27.6328 30.7645L29.1426 59.7413C30.8266 93.2475 50.2219 123.269 79.9536 138.716Z" fill="url(#paint2_linear_10079_21731859)"/>
<path d="M128.208 79.0784L134.133 45.6553L35.1016 118.425L87.7598 148.802L128.208 79.0784Z" fill="url(#paint3_linear_10079_21731859)"/>
</g>
<g filter="url(#filter1_d_10079_21731859)">
<path d="M79.9536 22.9832L122.635 37.3264L121.531 59.2767C120.777 74.0845 116.131 88.4858 108.117 100.971C100.975 112.062 91.3352 121.353 80.0116 128.089C68.688 121.353 59.0485 112.062 51.9059 100.971C43.8923 88.4858 39.2467 74.0845 38.4918 59.2767L37.3885 37.3264L79.9536 22.9832ZM79.9536 13.1694L27.6328 30.7645L29.1426 59.7413C30.8847 93.1894 50.2219 123.269 79.9536 138.716C109.743 123.269 129.08 93.2475 130.764 59.7413L132.274 30.7645L79.9536 13.1694Z" fill="#BEE6FF"/>
</g>
<g filter="url(#filter2_f_10079_21731859)">
<path d="M46 43.3159V59.2248L76.5071 32.0859L46 43.3159Z" fill="#64E466"/>
</g>
<g filter="url(#filter3_f_10079_21731859)">
<path d="M80.6094 114.601V122.837L111.117 95.6982L87.8095 104.278C83.4836 105.87 80.6094 109.991 80.6094 114.601Z" fill="#F2F9BD"/>
</g>
<mask id="mask1_10079_21731859" style="mask-type:alpha" maskUnits="userSpaceOnUse" x="27" y="13" width="106" height="126">
<path d="M79.9536 22.9832L122.635 37.3264L121.531 59.2767C120.777 74.0845 116.131 88.4858 108.117 100.971C100.975 112.062 91.3352 121.353 80.0116 128.089C68.688 121.353 59.0485 112.062 51.9059 100.971C43.8923 88.4858 39.2467 74.0845 38.4918 59.2767L37.3885 37.3264L79.9536 22.9832ZM79.9536 13.1694L27.6328 30.7645L29.1426 59.7413C30.8847 93.1894 50.2219 123.269 79.9536 138.716C109.743 123.269 129.08 93.2475 130.764 59.7413L132.274 30.7645L79.9536 13.1694Z" fill="#BEE6FF"/>
</mask>
<g mask="url(#mask1_10079_21731859)">
<rect x="107.344" y="6.75537" width="5.30962" height="116.987" transform="rotate(46.5014 107.344 6.75537)" fill="white"/>
<rect x="118.242" y="10.2178" width="29.2529" height="136.584" transform="rotate(46.5014 118.242 10.2178)" fill="white"/>
</g>
<path d="M86.4419 41.624H78.6054V42.6689C68.1568 45.8035 60.3203 55.7297 60.3203 67.7456C60.3203 79.7615 68.1568 89.1653 78.6054 92.8223V93.8672H86.4419C86.4419 93.8672 86.4419 93.8672 86.9643 93.8672C101.592 93.8672 113.086 82.3737 113.086 67.7456C113.086 53.1175 100.548 41.624 86.4419 41.624Z" fill="url(#paint4_linear_10079_21731859)"/>
<mask id="mask2_10079_21731859" style="mask-type:alpha" maskUnits="userSpaceOnUse" x="60" y="41" width="54" height="53">
<path d="M86.4497 41.624H78.6132V42.6689C68.1646 45.8035 60.3281 55.7297 60.3281 67.7456C60.3281 79.7615 68.1646 89.1653 78.6132 92.8223V93.8672H86.4497C86.4497 93.8672 86.4497 93.8672 86.9721 93.8672C101.6 93.8672 113.094 82.3737 113.094 67.7456C113.094 53.1175 100.555 41.624 86.4497 41.624Z" fill="url(#paint5_linear_10079_21731859)"/>
</mask>
<g mask="url(#mask2_10079_21731859)">
<rect x="74.2188" y="82.2725" width="37.9375" height="1.44055" fill="#0062EA"/>
<rect x="74.2188" y="46.2725" width="37.9375" height="1.44055" fill="#0062EA"/>
<rect x="77.2188" y="50.2725" width="37.9375" height="3.94287" fill="#42AB44"/>
<rect x="72.0938" y="86.2725" width="37.9375" height="3.94287" fill="#42AB44"/>
</g>
<path d="M81.2232 93.8672C95.6497 93.8672 107.345 82.1722 107.345 67.7456C107.345 53.3191 95.6497 41.624 81.2232 41.624C66.7966 41.624 55.1016 53.3191 55.1016 67.7456C55.1016 82.1722 66.7966 93.8672 81.2232 93.8672Z" fill="#F6F6F6"/>
<path d="M78.6138 93.8672C93.0403 93.8672 104.735 82.1722 104.735 67.7456C104.735 53.3191 93.0403 41.624 78.6138 41.624C64.1872 41.624 52.4922 53.3191 52.4922 67.7456C52.4922 82.1722 64.1872 93.8672 78.6138 93.8672Z" fill="#DADADA"/>
<path d="M78.6138 93.8672C93.0403 93.8672 104.735 82.1722 104.735 67.7456C104.735 53.3191 93.0403 41.624 78.6138 41.624C64.1872 41.624 52.4922 53.3191 52.4922 67.7456C52.4922 82.1722 64.1872 93.8672 78.6138 93.8672Z" fill="#BEE6FF"/>
<path d="M78.6138 93.8672C93.0403 93.8672 104.735 82.1722 104.735 67.7456C104.735 53.3191 93.0403 41.624 78.6138 41.624C64.1872 41.624 52.4922 53.3191 52.4922 67.7456C52.4922 82.1722 64.1872 93.8672 78.6138 93.8672Z" fill="url(#paint6_linear_10079_21731859)"/>
<path d="M53.6032 72.7234C53.6032 56.2935 66.5124 43.3844 82.9422 43.3844C85.8761 43.3844 88.81 43.9711 91.7439 44.5579C88.2233 42.7976 84.1158 41.624 79.4216 41.624C64.7521 41.624 52.4297 53.9464 52.4297 68.6159C52.4297 72.7233 53.6032 76.8308 54.7768 79.7647C54.19 77.4176 53.6032 75.0705 53.6032 72.7234Z" fill="white"/>
<path d="M76.5149 83.4173L63.9766 70.879L69.7233 65.1322L76.5149 71.9238L93.7552 54.6836L99.5019 60.4303L76.5149 83.4173Z" fill="url(#paint7_linear_10079_21731859)"/>
<path d="M76.5149 83.4173L63.9766 70.879L69.7233 65.1322L76.5149 71.9238L93.7552 54.6836L99.5019 60.4303L76.5149 83.4173Z" fill="url(#paint8_linear_10079_21731859)"/>
<path d="M73.3821 83.4173L60.8438 70.879L66.5905 65.1322L73.3821 71.9238L90.0999 54.6836L95.8467 60.4303L73.3821 83.4173Z" fill="url(#paint9_linear_10079_21731859)"/>
<path d="M73.3828 83.422L92.6528 57.2153L95.8474 60.435L73.3828 83.422Z" fill="#F6F6F6"/>
<path d="M36.8606 102.239L24.1019 100.531C21.9974 100.268 20.419 98.5603 20.0244 96.5893L18.0514 83.4497L16.6045 96.4579C16.3415 98.6917 14.6315 100.4 12.3955 100.663L-0.757812 102.239L12.2639 103.816C14.6315 104.079 16.3415 106.05 16.473 108.284L18.1829 138.373L20.2874 108.152C20.419 105.918 22.2604 104.079 24.4965 103.685L36.8606 102.239Z" fill="#B5E2FF"/>
<g filter="url(#filter4_f_10079_21731859)">
<path d="M165.574 24.8897L156.881 23.7259C155.448 23.5469 154.372 22.3832 154.104 21.0405L152.759 12.0889L151.774 20.951C151.594 22.4727 150.43 23.6364 148.906 23.8155L139.945 24.8897L148.817 25.9638C150.43 26.1429 151.595 27.4856 151.684 29.0074L152.849 49.5066L154.283 28.9179C154.372 27.3961 155.627 26.1429 157.15 25.8743L165.574 24.8897Z" fill="#B5E2FF"/>
</g>
</g>
<defs>
<filter id="filter0_f_10079_21731859" x="34.6406" y="140.071" width="103.492" height="19.7588" filterUnits="userSpaceOnUse" color-interpolation-filters="sRGB">
<feFlood flood-opacity="0" result="BackgroundImageFix"/>
<feBlend mode="normal" in="SourceGraphic" in2="BackgroundImageFix" result="shape"/>
<feGaussianBlur stdDeviation="3.5" result="effect1_foregroundBlur_10079_21731859"/>
</filter>
<filter id="filter1_d_10079_21731859" x="27.6328" y="12.1694" width="109.641" height="129.546" filterUnits="userSpaceOnUse" color-interpolation-filters="sRGB">
<feFlood flood-opacity="0" result="BackgroundImageFix"/>
<feColorMatrix in="SourceAlpha" type="matrix" values="0 0 0 0 0 0 0 0 0 0 0 0 0 0 0 0 0 0 127 0" result="hardAlpha"/>
<feOffset dx="3" dy="1"/>
<feGaussianBlur stdDeviation="1"/>
<feComposite in2="hardAlpha" operator="out"/>
<feColorMatrix type="matrix" values="0 0 0 0 0.211765 0 0 0 0 0.352941 0 0 0 0 0.752941 0 0 0 1 0"/>
<feBlend mode="normal" in2="BackgroundImageFix" result="effect1_dropShadow_10079_21731859"/>
<feBlend mode="normal" in="SourceGraphic" in2="effect1_dropShadow_10079_21731859" result="shape"/>
</filter>
<filter id="filter2_f_10079_21731859" x="42" y="28.0859" width="38.5078" height="35.1387" filterUnits="userSpaceOnUse" color-interpolation-filters="sRGB">
<feFlood flood-opacity="0" result="BackgroundImageFix"/>
<feBlend mode="normal" in="SourceGraphic" in2="BackgroundImageFix" result="shape"/>
<feGaussianBlur stdDeviation="2" result="effect1_foregroundBlur_10079_21731859"/>
</filter>
<filter id="filter3_f_10079_21731859" x="67.6094" y="82.6982" width="56.5078" height="53.1387" filterUnits="userSpaceOnUse" color-interpolation-filters="sRGB">
<feFlood flood-opacity="0" result="BackgroundImageFix"/>
<feBlend mode="normal" in="SourceGraphic" in2="BackgroundImageFix" result="shape"/>
<feGaussianBlur stdDeviation="6.5" result="effect1_foregroundBlur_10079_21731859"/>
</filter>
<filter id="filter4_f_10079_21731859" x="135.945" y="8.08887" width="33.625" height="45.4175" filterUnits="userSpaceOnUse" color-interpolation-filters="sRGB">
<feFlood flood-opacity="0" result="BackgroundImageFix"/>
<feBlend mode="normal" in="SourceGraphic" in2="BackgroundImageFix" result="shape"/>
<feGaussianBlur stdDeviation="2" result="effect1_foregroundBlur_10079_21731859"/>
</filter>
<radialGradient id="paint0_radial_10079_21731859" cx="0" cy="0" r="1" gradientUnits="userSpaceOnUse" gradientTransform="translate(86.3867 149.951) rotate(90.0054) scale(1.51919 23.6076)">
<stop stop-color="#6A99DD"/>
<stop offset="1" stop-color="#A0C0EF"/>
</radialGradient>
<linearGradient id="paint1_linear_10079_21731859" x1="91.5729" y1="85.4239" x2="91.5698" y2="138.716" gradientUnits="userSpaceOnUse">
<stop/>
<stop offset="1" stop-color="#0357CA"/>
</linearGradient>
<linearGradient id="paint2_linear_10079_21731859" x1="55.6602" y1="67.7083" x2="110.849" y2="112.197" gradientUnits="userSpaceOnUse">
<stop stop-color="#42AB44"/>
<stop offset="1" stop-color="#C1EA97"/>
</linearGradient>
<linearGradient id="paint3_linear_10079_21731859" x1="84.6172" y1="65.6443" x2="112.689" y2="88.4087" gradientUnits="userSpaceOnUse">
<stop stop-color="#2A842B"/>
<stop offset="1" stop-color="#42AB44" stop-opacity="0"/>
</linearGradient>
<linearGradient id="paint4_linear_10079_21731859" x1="86.7042" y1="71.691" x2="86.7031" y2="93.8672" gradientUnits="userSpaceOnUse">
<stop/>
<stop offset="1" stop-color="#0357CA"/>
</linearGradient>
<linearGradient id="paint5_linear_10079_21731859" x1="86.712" y1="71.691" x2="86.7109" y2="93.8672" gradientUnits="userSpaceOnUse">
<stop/>
<stop offset="1" stop-color="#0357CA"/>
</linearGradient>
<linearGradient id="paint6_linear_10079_21731859" x1="100.654" y1="74.2822" x2="89.5482" y2="42.4951" gradientUnits="userSpaceOnUse">
<stop stop-color="#F4FAFF"/>
<stop offset="1" stop-color="#F4FAFF" stop-opacity="0"/>
</linearGradient>
<linearGradient id="paint7_linear_10079_21731859" x1="78.7759" y1="69.0505" x2="67.5346" y2="61.3822" gradientUnits="userSpaceOnUse">
<stop/>
<stop offset="1" stop-color="#C17845"/>
</linearGradient>
<linearGradient id="paint8_linear_10079_21731859" x1="73.6518" y1="52.3575" x2="84.3206" y2="61.7329" gradientUnits="userSpaceOnUse">
<stop stop-color="#42AB44"/>
<stop offset="1" stop-color="#42AB44" stop-opacity="0"/>
</linearGradient>
<linearGradient id="paint9_linear_10079_21731859" x1="73.5757" y1="63.9042" x2="99.7404" y2="81.4669" gradientUnits="userSpaceOnUse">
<stop stop-color="#42AB44"/>
<stop offset="1" stop-color="#C8E99F"/>
</linearGradient>
<clipPath id="clip0_10079_21731859">
<rect width="180" height="160" fill="white"/>
</clipPath>
</defs>
</svg>

<svg title="Щит" viewBox="0 0 180 160" xmlns="http://www.w3.org/2000/svg" fill="none"><g clip-path="url(#a)"><g filter="url(#b)"><path fill="url(#c)" d="M86.387 152.83c24.712 0 44.746-1.289 44.746-2.879 0-1.591-20.034-2.88-44.746-2.88-24.713 0-44.746 1.289-44.746 2.88 0 1.59 20.033 2.879 44.746 2.879Z"/></g><path fill="url(#d)" d="M91.57 13.17H79.958v3.89L39.25 30.765l1.51 28.976a94.446 94.446 0 0 0 39.197 71.832v7.143H91.57c29.789-15.447 49.127-45.469 50.811-78.975l1.509-28.976-52.32-17.596Z"/><path fill="#0062EA" d="M71.07 20.08h41.056l-5.575-1.858H76.587L71.07 20.08ZM68.227 121.585a96.763 96.763 0 0 0 7.2 6.504h32.345c2.497-2.032 4.878-4.239 7.201-6.504H68.227ZM71.773 30.939v6.504h71.775l.348-6.504H71.773Z"/><path fill="#42AB44" d="M99.987 133.78c.929-.581 1.8-1.219 2.729-1.858H79.953v1.858h20.034ZM81.234 40.694v1.859h62.077l.058-1.859H81.234Z"/><mask id="e" width="106" height="126" x="27" y="13" maskUnits="userSpaceOnUse" style="mask-type:alpha"><path fill="#42AB44" d="M79.954 138.716c29.789-15.447 49.126-45.469 50.81-78.975l1.51-28.976-52.32-17.596-52.321 17.596 1.51 28.976c1.684 33.507 21.079 63.528 50.81 78.975Z"/></mask><g mask="url(#e)"><path fill="url(#f)" d="M79.954 138.716c29.789-15.447 49.126-45.469 50.81-78.975l1.51-28.976-52.32-17.596-52.321 17.596 1.51 28.976c1.684 33.507 21.079 63.528 50.81 78.975Z"/><path fill="url(#g)" d="m128.208 79.078 5.925-33.423-99.031 72.77 52.658 30.377 40.448-69.724Z"/></g><g filter="url(#h)"><path fill="#BEE6FF" d="m79.954 22.983 42.681 14.343-1.104 21.95c-.754 14.809-5.4 29.21-13.414 41.695a85.344 85.344 0 0 1-28.105 27.118 85.351 85.351 0 0 1-28.106-27.118c-8.014-12.485-12.66-26.886-13.414-41.694l-1.103-21.95 42.565-14.344Zm0-9.814L27.633 30.765l1.51 28.976c1.742 33.448 21.079 63.528 50.81 78.975 29.79-15.447 49.127-45.469 50.811-78.975l1.51-28.976-52.32-17.596Z"/></g><g filter="url(#i)"><path fill="#64E466" d="M46 43.316v15.909l30.507-27.14L46 43.316Z"/></g><g filter="url(#j)"><path fill="#F2F9BD" d="M80.61 114.601v8.236l30.507-27.139-23.308 8.58a11 11 0 0 0-7.2 10.323Z"/></g><mask id="k" width="106" height="126" x="27" y="13" maskUnits="userSpaceOnUse" style="mask-type:alpha"><path fill="#BEE6FF" d="m79.954 22.983 42.681 14.343-1.104 21.95c-.754 14.809-5.4 29.21-13.414 41.695a85.344 85.344 0 0 1-28.105 27.118 85.351 85.351 0 0 1-28.106-27.118c-8.014-12.485-12.66-26.886-13.414-41.694l-1.103-21.95 42.565-14.344Zm0-9.814L27.633 30.765l1.51 28.976c1.742 33.448 21.079 63.528 50.81 78.975 29.79-15.447 49.127-45.469 50.811-78.975l1.51-28.976-52.32-17.596Z"/></mask><g fill="#fff" mask="url(#k)"><path d="M107.344 6.755 111 10.607 26.138 91.133l-3.655-3.851zM118.242 10.218l20.136 21.22L39.3 125.454l-20.136-21.22z"/></g><path fill="url(#l)" d="M86.442 41.624h-7.837v1.045C68.157 45.804 60.32 55.729 60.32 67.746c0 12.016 7.837 21.42 18.285 25.076v1.045h8.359c14.628 0 26.122-11.493 26.122-26.121 0-14.628-12.538-26.122-26.644-26.122Z"/><mask id="n" width="54" height="53" x="60" y="41" maskUnits="userSpaceOnUse" style="mask-type:alpha"><path fill="url(#m)" d="M86.45 41.624h-7.837v1.045c-10.448 3.135-18.285 13.06-18.285 25.077 0 12.016 7.837 21.42 18.285 25.076v1.045h8.359c14.628 0 26.122-11.493 26.122-26.121 0-14.628-12.539-26.122-26.644-26.122Z"/></mask><g mask="url(#n)"><path fill="#0062EA" d="M74.219 82.272h37.938v1.441H74.219zM74.219 46.273h37.938v1.441H74.219z"/><path fill="#42AB44" d="M77.219 50.273h37.938v3.943H77.219zM72.094 86.272h37.938v3.943H72.094z"/></g><path fill="#F6F6F6" d="M81.223 93.867c14.427 0 26.122-11.695 26.122-26.121 0-14.427-11.695-26.122-26.122-26.122-14.426 0-26.121 11.695-26.121 26.122 0 14.426 11.695 26.121 26.121 26.121Z"/><path fill="#DADADA" d="M78.614 93.867c14.426 0 26.121-11.695 26.121-26.121 0-14.427-11.695-26.122-26.121-26.122-14.427 0-26.122 11.695-26.122 26.122 0 14.426 11.695 26.121 26.122 26.121Z"/><path fill="#BEE6FF" d="M78.614 93.867c14.426 0 26.121-11.695 26.121-26.121 0-14.427-11.695-26.122-26.121-26.122-14.427 0-26.122 11.695-26.122 26.122 0 14.426 11.695 26.121 26.122 26.121Z"/><path fill="url(#o)" d="M78.614 93.867c14.426 0 26.121-11.695 26.121-26.121 0-14.427-11.695-26.122-26.121-26.122-14.427 0-26.122 11.695-26.122 26.122 0 14.426 11.695 26.121 26.122 26.121Z"/><path fill="#fff" d="M53.603 72.723c0-16.43 12.91-29.339 29.34-29.339 2.933 0 5.867.587 8.8 1.174-3.52-1.76-7.627-2.934-12.321-2.934-14.67 0-26.992 12.322-26.992 26.992 0 4.107 1.173 8.215 2.347 11.149-.587-2.347-1.174-4.695-1.174-7.042Z"/><path fill="url(#p)" d="M76.515 83.417 63.977 70.88l5.746-5.747 6.792 6.792 17.24-17.24 5.747 5.746-22.987 22.987Z"/><path fill="url(#q)" d="M76.515 83.417 63.977 70.88l5.746-5.747 6.792 6.792 17.24-17.24 5.747 5.746-22.987 22.987Z"/><path fill="url(#r)" d="M73.382 83.417 60.844 70.88l5.747-5.747 6.791 6.792L90.1 54.684l5.747 5.746-22.465 22.987Z"/><path fill="#F6F6F6" d="m73.383 83.422 19.27-26.207 3.194 3.22-22.464 22.987Z"/><path fill="#B5E2FF" d="m36.86 102.239-12.758-1.708c-2.105-.263-3.683-1.97-4.078-3.942l-1.973-13.14-1.446 13.009a4.754 4.754 0 0 1-4.21 4.205l-13.153 1.576 13.022 1.577c2.368.263 4.078 2.234 4.209 4.468l1.71 30.089 2.104-30.221c.132-2.234 1.973-4.073 4.21-4.467l12.364-1.446Z"/><g filter="url(#s)"><path fill="#B5E2FF" d="m165.574 24.89-8.693-1.164c-1.433-.18-2.509-1.343-2.777-2.685l-1.345-8.952-.985 8.862a3.24 3.24 0 0 1-2.868 2.864l-8.961 1.075 8.872 1.074c1.613.179 2.778 1.522 2.867 3.043l1.165 20.5 1.434-20.59c.089-1.52 1.344-2.774 2.867-3.043l8.424-.984Z"/></g></g><defs><linearGradient id="d" x1="91.573" x2="91.57" y1="85.424" y2="138.716" gradientUnits="userSpaceOnUse"><stop/><stop offset="1" stop-color="#0357CA"/></linearGradient><linearGradient id="f" x1="55.66" x2="110.849" y1="67.708" y2="112.197" gradientUnits="userSpaceOnUse"><stop stop-color="#42AB44"/><stop offset="1" stop-color="#C1EA97"/></linearGradient><linearGradient id="g" x1="84.617" x2="112.689" y1="65.644" y2="88.409" gradientUnits="userSpaceOnUse"><stop stop-color="#2A842B"/><stop offset="1" stop-color="#42AB44" stop-opacity="0"/></linearGradient><linearGradient id="l" x1="86.704" x2="86.703" y1="71.691" y2="93.867" gradientUnits="userSpaceOnUse"><stop/><stop offset="1" stop-color="#0357CA"/></linearGradient><linearGradient id="m" x1="86.712" x2="86.711" y1="71.691" y2="93.867" gradientUnits="userSpaceOnUse"><stop/><stop offset="1" stop-color="#0357CA"/></linearGradient><linearGradient id="o" x1="100.654" x2="89.548" y1="74.282" y2="42.495" gradientUnits="userSpaceOnUse"><stop stop-color="#F4FAFF"/><stop offset="1" stop-color="#F4FAFF" stop-opacity="0"/></linearGradient><linearGradient id="p" x1="78.776" x2="67.535" y1="69.05" y2="61.382" gradientUnits="userSpaceOnUse"><stop/><stop offset="1" stop-color="#C17845"/></linearGradient><linearGradient id="q" x1="73.652" x2="84.321" y1="52.358" y2="61.733" gradientUnits="userSpaceOnUse"><stop stop-color="#42AB44"/><stop offset="1" stop-color="#42AB44" stop-opacity="0"/></linearGradient><linearGradient id="r" x1="73.576" x2="99.74" y1="63.904" y2="81.467" gradientUnits="userSpaceOnUse"><stop stop-color="#42AB44"/><stop offset="1" stop-color="#C8E99F"/></linearGradient><filter id="b" width="103.492" height="19.759" x="34.641" y="140.071" color-interpolation-filters="sRGB" filterUnits="userSpaceOnUse"><feFlood flood-opacity="0" result="BackgroundImageFix"/><feBlend in="SourceGraphic" in2="BackgroundImageFix" result="shape"/><feGaussianBlur result="effect1_foregroundBlur_10079_21731859" stdDeviation="3.5"/></filter><filter id="h" width="109.641" height="129.546" x="27.633" y="12.169" color-interpolation-filters="sRGB" filterUnits="userSpaceOnUse"><feFlood flood-opacity="0" result="BackgroundImageFix"/><feColorMatrix in="SourceAlpha" result="hardAlpha" values="0 0 0 0 0 0 0 0 0 0 0 0 0 0 0 0 0 0 127 0"/><feOffset dx="3" dy="1"/><feGaussianBlur stdDeviation="1"/><feComposite in2="hardAlpha" operator="out"/><feColorMatrix values="0 0 0 0 0.211765 0 0 0 0 0.352941 0 0 0 0 0.752941 0 0 0 1 0"/><feBlend in2="BackgroundImageFix" result="effect1_dropShadow_10079_21731859"/><feBlend in="SourceGraphic" in2="effect1_dropShadow_10079_21731859" result="shape"/></filter><filter id="i" width="38.508" height="35.139" x="42" y="28.086" color-interpolation-filters="sRGB" filterUnits="userSpaceOnUse"><feFlood flood-opacity="0" result="BackgroundImageFix"/><feBlend in="SourceGraphic" in2="BackgroundImageFix" result="shape"/><feGaussianBlur result="effect1_foregroundBlur_10079_21731859" stdDeviation="2"/></filter><filter id="j" width="56.508" height="53.139" x="67.609" y="82.698" color-interpolation-filters="sRGB" filterUnits="userSpaceOnUse"><feFlood flood-opacity="0" result="BackgroundImageFix"/><feBlend in="SourceGraphic" in2="BackgroundImageFix" result="shape"/><feGaussianBlur result="effect1_foregroundBlur_10079_21731859" stdDeviation="6.5"/></filter><filter id="s" width="33.625" height="45.417" x="135.945" y="8.089" color-interpolation-filters="sRGB" filterUnits="userSpaceOnUse"><feFlood flood-opacity="0" result="BackgroundImageFix"/><feBlend in="SourceGraphic" in2="BackgroundImageFix" result="shape"/><feGaussianBlur result="effect1_foregroundBlur_10079_21731859" stdDeviation="2"/></filter><radialGradient id="c" cx="0" cy="0" r="1" gradientTransform="rotate(90.005 -31.775 118.165) scale(1.51919 23.6076)" gradientUnits="userSpaceOnUse"><stop stop-color="#6A99DD"/><stop offset="1" stop-color="#A0C0EF"/></radialGradient><clipPath id="a"><path fill="#fff" d="M0 0h180v160H0z"/></clipPath></defs></svg>
